Newaita-dark/apps/16/noson.svg

<svg height="16" viewBox="0 0 16 16" width="16" xmlns="http://www.w3.org/2000/svg" xmlns:xlink="http://www.w3.org/1999/xlink"><linearGradient id="a" gradientUnits="userSpaceOnUse" x1="7.93826" x2="7.93826" y1="14.0169685" y2="14.67849050002"><stop offset="0" stop-opacity=".27451"/><stop offset="1" stop-opacity="0"/></linearGradient><linearGradient id="b"><stop offset="0" stop-opacity=".313726"/><stop offset=".222222" stop-opacity=".27451"/><stop offset="1" stop-opacity="0"/></linearGradient><radialGradient id="c" cx="450.908936" cy="189.579361" gradientTransform="matrix(.00000009 -.0390662 -.0703192 -.00000005 26.065324 31.797666)" gradientUnits="userSpaceOnUse" r="21.166656" xlink:href="#b"/><radialGradient id="d" cx="450.908936" cy="189.579361" gradientTransform="matrix(-.00000009 .0390662 .0703192 .00000005 -10.188807 -3.763739)" gradientUnits="userSpaceOnUse" r="21.166656" xlink:href="#b"/><radialGradient id="e" cx="450.908936" cy="189.579361" gradientTransform="matrix(-.00000009 -.0390662 .0703192 -.00000005 -10.188807 31.797666)" gradientUnits="userSpaceOnUse" r="21.166656" xlink:href="#b"/><radialGradient id="f" cx="450.908936" cy="189.579361" gradientTransform="matrix(.00000009 .0390662 -.0703192 .00000005 26.065323 -3.76374)" gradientUnits="userSpaceOnUse" r="21.166656" xlink:href="#b"/><linearGradient id="g" gradientUnits="userSpaceOnUse" x1="5.29217449998" x2="5.29217449998" y1="14.0169675" y2="1.44805300003"><stop offset="0" stop-color="#ff7043"/><stop offset="1" stop-color="#ff8a65"/></linearGradient><linearGradient id="h"><stop offset="0" stop-color="#424242"/><stop offset="1" stop-color="#616161"/></linearGradient><linearGradient id="i" gradientUnits="userSpaceOnUse" x1="7.9382624688" x2="7.938262" xlink:href="#h" y1=".78653100002" y2="15.34001150003"/><linearGradient id="j" gradientUnits="userSpaceOnUse" x1="7.938262" x2="7.938262" y1="14.0169675" y2="1.44805249998"><stop offset="0" stop-color="#757575"/><stop offset="1" stop-color="#9e9e9e"/></linearGradient><linearGradient id="k" gradientUnits="userSpaceOnUse" x1="8.37927227083" x2="8.37927227083" xlink:href="#h" y1="5.30692912916" y2="10.37859649999"/><path d="m2.976562 13.96875h9.921876v.734375h-9.921876zm0 0" fill="url(#a)"/><path d="m12.898438 14.015625h1.324218v-.660156h-1.324218zm0 0" fill="url(#c)"/><path d="m2.976562 14.015625h-1.324218v.664063h1.324218zm0 0" fill="url(#d)"/><path d="m2.976562 14.015625h-1.324218v-.660156h1.324218zm0 0" fill="url(#e)"/><path d="m12.898438 14.015625h1.324218v.664063h-1.324218zm0 0" fill="url(#f)"/><path d="m2.316406 1.449219h11.246094c.363281 0 .660156.296875.660156.660156v11.246094c0 .367187-.296875.660156-.660156.660156h-11.246094c-.367187 0-.664062-.292969-.664062-.660156v-11.246094c0-.363281.296875-.660156.664062-.660156zm0 0" fill="url(#g)"/><path d="m2.316406 1.480469c-.367187 0-.664062.296875-.664062.660156v.085937c0-.367187.296875-.664062.664062-.664062h11.246094c.363281 0 .660156.296875.660156.664062v-.085937c0-.363281-.296875-.660156-.660156-.660156zm0 0" fill="#fff" fill-opacity=".392157"/><path d="m2.316406 13.976562c-.367187 0-.664062-.296874-.664062-.664062v-.082031c0 .367187.296875.664062.664062.664062h11.246094c.363281 0 .660156-.296875.660156-.664062v.082031c0 .367188-.296875.664062-.660156.664062zm0 0" fill-opacity=".196078"/><path d="m74.117922-168.629428h359.840637c11.62389 0 21.122983 9.499093 21.122983 21.122983v359.840637c0 11.748878-9.499093 21.122982-21.122983 21.122982h-359.840637c-11.748878 0-21.247971-9.374104-21.247971-21.122982v-359.840637c0-11.62389 9.499093-21.122983 21.247971-21.122983zm0 0" fill="none" stroke="#212121" stroke-linecap="round" stroke-width="3" transform="matrix(.031253 0 0 .031253 0 6.719392)"/><path d="m7.9375 3.101562c2.558594 0 4.632812 2.074219 4.632812 4.632813 0 2.554687-2.074218 4.628906-4.632812 4.628906s-4.628906-2.074219-4.628906-4.628906c0-2.558594 2.070312-4.632813 4.628906-4.632813zm0 0" fill="url(#i)"/><path d="m7.9375 3.101562c-2.566406 0-4.628906 2.066407-4.628906 4.632813v.09375c.050781-2.519531 2.097656-4.535156 4.628906-4.535156 2.535156 0 4.578125 2.015625 4.628906 4.535156.003906-.03125.003906-.0625.003906-.09375 0-2.566406-2.066406-4.632813-4.632812-4.632813zm0 0" fill-opacity=".235294"/><path d="m3.308594 7.816406v.082032c0 2.566406 2.0625 4.628906 4.628906 4.628906s4.632812-2.0625 4.632812-4.628906c0-.027344 0-.054688-.003906-.082032-.042968 2.527344-2.089844 4.546875-4.628906 4.546875-2.535156 0-4.585938-2.019531-4.628906-4.546875zm0 0" fill="#fff" fill-opacity=".392157"/><path d="m253.975747-115.759477c81.867182 0 148.235844 66.368662 148.235844 148.235844 0 81.742194-66.368662 148.110856-148.235844 148.110856-81.867183 0-148.110857-66.368662-148.110857-148.110856 0-81.867182 66.243674-148.235844 148.110857-148.235844zm0 0" fill="none" stroke="#212121" stroke-linecap="round" stroke-linejoin="round" stroke-width="3" transform="matrix(.031253 0 0 .031253 0 6.719392)"/><path d="m7.9375 4.425781c1.828125 0 3.308594 1.480469 3.308594 3.308594 0 1.824219-1.480469 3.304687-3.308594 3.304687-1.824219 0-3.308594-1.480468-3.308594-3.304687 0-1.828125 1.484375-3.308594 3.308594-3.308594zm0 0" fill="url(#j)"/><path d="m7.9375 4.425781c-1.832031 0-3.308594 1.472657-3.308594 3.308594 0 .027344.003906.054687.003906.082031.042969-1.796875 1.5-3.226562 3.304688-3.226562s3.265625 1.429687 3.308594 3.226562c0-.027344 0-.054687 0-.082031 0-1.835937-1.476563-3.308594-3.308594-3.308594zm0 0" fill="#fff" fill-opacity=".392157"/><path d="m4.632812 7.855469c0 .042969-.003906.082031-.003906.125 0 1.832031 1.476563 3.308593 3.308594 3.308593s3.308594-1.476562 3.308594-3.308593c0-.042969 0-.082031-.003906-.125-.0625 1.777343-1.511719 3.183593-3.304688 3.183593-1.789062 0-3.238281-1.40625-3.304688-3.183593zm0 0" fill-opacity=".235294"/><path d="m253.975747-73.388523c58.494414 0 105.86489 47.370476 105.86489 105.86489 0 58.369426-47.370476 105.739903-105.86489 105.739903-58.369426 0-105.864891-47.370477-105.864891-105.739903 0-58.494414 47.495465-105.86489 105.864891-105.86489zm0 0" fill="none" stroke="#212121" stroke-linecap="round" stroke-linejoin="round" stroke-width="3" transform="matrix(.031253 0 0 .031253 0 6.719392)"/><path d="m7.9375 6.410156c.730469 0 1.324219.589844 1.324219 1.324219 0 .730469-.59375 1.320313-1.324219 1.320313s-1.324219-.589844-1.324219-1.320313c0-.734375.59375-1.324219 1.324219-1.324219zm0 0" fill="url(#k)"/><path d="m7.9375 6.410156c-.730469 0-1.324219.589844-1.324219 1.324219 0 .019531.003907.039063.003907.058594.03125-.703125.609374-1.257813 1.320312-1.257813.714844 0 1.289062.554688 1.324219 1.257813 0-.019531 0-.039063 0-.058594 0-.734375-.589844-1.324219-1.324219-1.324219zm0 0" fill-opacity=".235294"/><path d="m7.9375 9.222656c-.730469 0-1.324219-.59375-1.324219-1.324218 0-.019532.003907-.042969.003907-.0625.03125.703124.609374 1.261718 1.320312 1.261718.714844 0 1.289062-.558594 1.324219-1.261718v.0625c0 .730468-.589844 1.324218-1.324219 1.324218zm0 0" fill="#fff" fill-opacity=".392157"/><path d="m253.975747-9.894587c23.372768 0 42.370953 18.873198 42.370953 42.370954 0 23.372768-18.998185 42.245966-42.370953 42.245966s-42.370954-18.873198-42.370954-42.245966c0-23.497756 18.998186-42.370954 42.370954-42.370954zm0 0" fill="none" stroke="#212121" stroke-linecap="round" stroke-linejoin="round" stroke-width="3" transform="matrix(.031253 0 0 .031253 0 6.719392)"/></svg>

<?xml version="1.0" encoding="UTF-8"?>
<svg xmlns="http://www.w3.org/2000/svg" xmlns:xlink="http://www.w3.org/1999/xlink" width="16px" height="16px" viewBox="0 0 16 16" version="1.1">
<defs>
<linearGradient id="linear0" gradientUnits="userSpaceOnUse" x1="254" y1="233.5" x2="254" y2="254.666672" gradientTransform="matrix(0.031253,0,0,0.031253,-0.00000190753,6.719393)">
<stop offset="0" style="stop-color:rgb(0%,0%,0%);stop-opacity:0.27451;"/>
<stop offset="1" style="stop-color:rgb(0%,0%,0%);stop-opacity:0;"/>
</linearGradient>
<radialGradient id="radial0" gradientUnits="userSpaceOnUse" cx="450.908936" cy="189.579361" fx="450.908936" fy="189.579361" r="21.166656" gradientTransform="matrix(0.0000000870852,-0.0390662,-0.0703192,-0.0000000507693,26.065324,31.797666)">
<stop offset="0" style="stop-color:rgb(0%,0%,0%);stop-opacity:0.313726;"/>
<stop offset="0.222222" style="stop-color:rgb(0%,0%,0%);stop-opacity:0.27451;"/>
<stop offset="1" style="stop-color:rgb(0%,0%,0%);stop-opacity:0;"/>
</radialGradient>
<radialGradient id="radial1" gradientUnits="userSpaceOnUse" cx="450.908936" cy="189.579361" fx="450.908936" fy="189.579361" r="21.166656" gradientTransform="matrix(-0.0000000870852,0.0390662,0.0703192,0.0000000507693,-10.188807,-3.763739)">
<stop offset="0" style="stop-color:rgb(0%,0%,0%);stop-opacity:0.313726;"/>
<stop offset="0.222222" style="stop-color:rgb(0%,0%,0%);stop-opacity:0.27451;"/>
<stop offset="1" style="stop-color:rgb(0%,0%,0%);stop-opacity:0;"/>
</radialGradient>
<radialGradient id="radial2" gradientUnits="userSpaceOnUse" cx="450.908936" cy="189.579361" fx="450.908936" fy="189.579361" r="21.166656" gradientTransform="matrix(-0.0000000870852,-0.0390662,0.0703192,-0.0000000507693,-10.188807,31.797666)">
<stop offset="0" style="stop-color:rgb(0%,0%,0%);stop-opacity:0.313726;"/>
<stop offset="0.222222" style="stop-color:rgb(0%,0%,0%);stop-opacity:0.27451;"/>
<stop offset="1" style="stop-color:rgb(0%,0%,0%);stop-opacity:0;"/>
</radialGradient>
<radialGradient id="radial3" gradientUnits="userSpaceOnUse" cx="450.908936" cy="189.579361" fx="450.908936" fy="189.579361" r="21.166656" gradientTransform="matrix(0.0000000870852,0.0390662,-0.0703192,0.0000000507693,26.065323,-3.76374)">
<stop offset="0" style="stop-color:rgb(0%,0%,0%);stop-opacity:0.313726;"/>
<stop offset="0.222222" style="stop-color:rgb(0%,0%,0%);stop-opacity:0.27451;"/>
<stop offset="1" style="stop-color:rgb(0%,0%,0%);stop-opacity:0;"/>
</radialGradient>
<linearGradient id="linear1" gradientUnits="userSpaceOnUse" x1="169.333328" y1="233.5" x2="169.333328" y2="-168.666656" gradientTransform="matrix(0.031253,0,0,0.031253,0,6.719392)">
<stop offset="0" style="stop-color:rgb(100%,43.921569%,26.274511%);stop-opacity:1;"/>
<stop offset="1" style="stop-color:rgb(100%,54.11765%,39.607844%);stop-opacity:1;"/>
</linearGradient>
<linearGradient id="linear2" gradientUnits="userSpaceOnUse" x1="254.000015" y1="-189.833328" x2="254" y2="275.833344" gradientTransform="matrix(0.031253,0,0,0.031253,0,6.719392)">
<stop offset="0" style="stop-color:rgb(25.882354%,25.882354%,25.882354%);stop-opacity:1;"/>
<stop offset="1" style="stop-color:rgb(38.039216%,38.039216%,38.039216%);stop-opacity:1;"/>
</linearGradient>
<linearGradient id="linear3" gradientUnits="userSpaceOnUse" x1="254" y1="233.5" x2="254" y2="-168.666672" gradientTransform="matrix(0.031253,0,0,0.031253,0,6.719392)">
<stop offset="0" style="stop-color:rgb(45.882353%,45.882353%,45.882353%);stop-opacity:1;"/>
<stop offset="1" style="stop-color:rgb(61.960787%,61.960787%,61.960787%);stop-opacity:1;"/>
</linearGradient>
<linearGradient id="linear4" gradientUnits="userSpaceOnUse" x1="289.277771" y1="-161.611115" x2="289.277771" y2="244.083328" gradientTransform="matrix(0.0125012,0,0,0.0125012,4.762953,7.327262)">
<stop offset="0" style="stop-color:rgb(25.882354%,25.882354%,25.882354%);stop-opacity:1;"/>
<stop offset="1" style="stop-color:rgb(38.039216%,38.039216%,38.039216%);stop-opacity:1;"/>
</linearGradient>
</defs>
<g id="surface1">
<path style=" stroke:none;fill-rule:nonzero;fill:url(#linear0);" d="M 2.976562 13.96875 L 12.898438 13.96875 L 12.898438 14.703125 L 2.976562 14.703125 Z M 2.976562 13.96875 "/>
<path style=" stroke:none;fill-rule:nonzero;fill:url(#radial0);" d="M 12.898438 14.015625 L 14.222656 14.015625 L 14.222656 13.355469 L 12.898438 13.355469 Z M 12.898438 14.015625 "/>
<path style=" stroke:none;fill-rule:nonzero;fill:url(#radial1);" d="M 2.976562 14.015625 L 1.652344 14.015625 L 1.652344 14.679688 L 2.976562 14.679688 Z M 2.976562 14.015625 "/>
<path style=" stroke:none;fill-rule:nonzero;fill:url(#radial2);" d="M 2.976562 14.015625 L 1.652344 14.015625 L 1.652344 13.355469 L 2.976562 13.355469 Z M 2.976562 14.015625 "/>
<path style=" stroke:none;fill-rule:nonzero;fill:url(#radial3);" d="M 12.898438 14.015625 L 14.222656 14.015625 L 14.222656 14.679688 L 12.898438 14.679688 Z M 12.898438 14.015625 "/>
<path style=" stroke:none;fill-rule:nonzero;fill:url(#linear1);" d="M 2.316406 1.449219 L 13.5625 1.449219 C 13.925781 1.449219 14.222656 1.746094 14.222656 2.109375 L 14.222656 13.355469 C 14.222656 13.722656 13.925781 14.015625 13.5625 14.015625 L 2.316406 14.015625 C 1.949219 14.015625 1.652344 13.722656 1.652344 13.355469 L 1.652344 2.109375 C 1.652344 1.746094 1.949219 1.449219 2.316406 1.449219 Z M 2.316406 1.449219 "/>
<path style=" stroke:none;fill-rule:nonzero;fill:rgb(100%,100%,100%);fill-opacity:0.392157;" d="M 2.316406 1.480469 C 1.949219 1.480469 1.652344 1.777344 1.652344 2.140625 L 1.652344 2.226562 C 1.652344 1.859375 1.949219 1.5625 2.316406 1.5625 L 13.5625 1.5625 C 13.925781 1.5625 14.222656 1.859375 14.222656 2.226562 L 14.222656 2.140625 C 14.222656 1.777344 13.925781 1.480469 13.5625 1.480469 Z M 2.316406 1.480469 "/>
<path style=" stroke:none;fill-rule:nonzero;fill:rgb(0%,0%,0%);fill-opacity:0.196078;" d="M 2.316406 13.976562 C 1.949219 13.976562 1.652344 13.679688 1.652344 13.3125 L 1.652344 13.230469 C 1.652344 13.597656 1.949219 13.894531 2.316406 13.894531 L 13.5625 13.894531 C 13.925781 13.894531 14.222656 13.597656 14.222656 13.230469 L 14.222656 13.3125 C 14.222656 13.679688 13.925781 13.976562 13.5625 13.976562 Z M 2.316406 13.976562 "/>
<path style="fill:none;stroke-width:3;stroke-linecap:round;stroke-linejoin:miter;stroke:rgb(12.941177%,12.941177%,12.941177%);stroke-opacity:1;stroke-miterlimit:4;" d="M 74.117922 -168.629428 L 433.958559 -168.629428 C 445.582449 -168.629428 455.081542 -159.130335 455.081542 -147.506445 L 455.081542 212.334192 C 455.081542 224.08307 445.582449 233.457174 433.958559 233.457174 L 74.117922 233.457174 C 62.369044 233.457174 52.869951 224.08307 52.869951 212.334192 L 52.869951 -147.506445 C 52.869951 -159.130335 62.369044 -168.629428 74.117922 -168.629428 Z M 74.117922 -168.629428 " transform="matrix(0.031253,0,0,0.031253,0,6.719392)"/>
<path style=" stroke:none;fill-rule:nonzero;fill:url(#linear2);" d="M 7.9375 3.101562 C 10.496094 3.101562 12.570312 5.175781 12.570312 7.734375 C 12.570312 10.289062 10.496094 12.363281 7.9375 12.363281 C 5.378906 12.363281 3.308594 10.289062 3.308594 7.734375 C 3.308594 5.175781 5.378906 3.101562 7.9375 3.101562 Z M 7.9375 3.101562 "/>
<path style=" stroke:none;fill-rule:nonzero;fill:rgb(0%,0%,0%);fill-opacity:0.235294;" d="M 7.9375 3.101562 C 5.371094 3.101562 3.308594 5.167969 3.308594 7.734375 C 3.308594 7.765625 3.308594 7.796875 3.308594 7.828125 C 3.359375 5.308594 5.40625 3.292969 7.9375 3.292969 C 10.472656 3.292969 12.515625 5.308594 12.566406 7.828125 C 12.570312 7.796875 12.570312 7.765625 12.570312 7.734375 C 12.570312 5.167969 10.503906 3.101562 7.9375 3.101562 Z M 7.9375 3.101562 "/>
<path style=" stroke:none;fill-rule:nonzero;fill:rgb(100%,100%,100%);fill-opacity:0.392157;" d="M 3.308594 7.816406 C 3.308594 7.84375 3.308594 7.871094 3.308594 7.898438 C 3.308594 10.464844 5.371094 12.527344 7.9375 12.527344 C 10.503906 12.527344 12.570312 10.464844 12.570312 7.898438 C 12.570312 7.871094 12.570312 7.84375 12.566406 7.816406 C 12.523438 10.34375 10.476562 12.363281 7.9375 12.363281 C 5.402344 12.363281 3.351562 10.34375 3.308594 7.816406 Z M 3.308594 7.816406 "/>
<path style="fill:none;stroke-width:3;stroke-linecap:round;stroke-linejoin:round;stroke:rgb(12.941177%,12.941177%,12.941177%);stroke-opacity:1;stroke-miterlimit:4;" d="M 253.975747 -115.759477 C 335.842929 -115.759477 402.211591 -49.390815 402.211591 32.476367 C 402.211591 114.218561 335.842929 180.587223 253.975747 180.587223 C 172.108564 180.587223 105.86489 114.218561 105.86489 32.476367 C 105.86489 -49.390815 172.108564 -115.759477 253.975747 -115.759477 Z M 253.975747 -115.759477 " transform="matrix(0.031253,0,0,0.031253,0,6.719392)"/>
<path style=" stroke:none;fill-rule:nonzero;fill:url(#linear3);" d="M 7.9375 4.425781 C 9.765625 4.425781 11.246094 5.90625 11.246094 7.734375 C 11.246094 9.558594 9.765625 11.039062 7.9375 11.039062 C 6.113281 11.039062 4.628906 9.558594 4.628906 7.734375 C 4.628906 5.90625 6.113281 4.425781 7.9375 4.425781 Z M 7.9375 4.425781 "/>
<path style=" stroke:none;fill-rule:nonzero;fill:rgb(100%,100%,100%);fill-opacity:0.392157;" d="M 7.9375 4.425781 C 6.105469 4.425781 4.628906 5.898438 4.628906 7.734375 C 4.628906 7.761719 4.632812 7.789062 4.632812 7.816406 C 4.675781 6.019531 6.132812 4.589844 7.9375 4.589844 C 9.742188 4.589844 11.203125 6.019531 11.246094 7.816406 C 11.246094 7.789062 11.246094 7.761719 11.246094 7.734375 C 11.246094 5.898438 9.769531 4.425781 7.9375 4.425781 Z M 7.9375 4.425781 "/>
<path style=" stroke:none;fill-rule:nonzero;fill:rgb(0%,0%,0%);fill-opacity:0.235294;" d="M 4.632812 7.855469 C 4.632812 7.898438 4.628906 7.9375 4.628906 7.980469 C 4.628906 9.8125 6.105469 11.289062 7.9375 11.289062 C 9.769531 11.289062 11.246094 9.8125 11.246094 7.980469 C 11.246094 7.9375 11.246094 7.898438 11.242188 7.855469 C 11.179688 9.632812 9.730469 11.039062 7.9375 11.039062 C 6.148438 11.039062 4.699219 9.632812 4.632812 7.855469 Z M 4.632812 7.855469 "/>
<path style="fill:none;stroke-width:3;stroke-linecap:round;stroke-linejoin:round;stroke:rgb(12.941177%,12.941177%,12.941177%);stroke-opacity:1;stroke-miterlimit:4;" d="M 253.975747 -73.388523 C 312.470161 -73.388523 359.840637 -26.018047 359.840637 32.476367 C 359.840637 90.845793 312.470161 138.21627 253.975747 138.21627 C 195.606321 138.21627 148.110856 90.845793 148.110856 32.476367 C 148.110856 -26.018047 195.606321 -73.388523 253.975747 -73.388523 Z M 253.975747 -73.388523 " transform="matrix(0.031253,0,0,0.031253,0,6.719392)"/>
<path style=" stroke:none;fill-rule:nonzero;fill:url(#linear4);" d="M 7.9375 6.410156 C 8.667969 6.410156 9.261719 7 9.261719 7.734375 C 9.261719 8.464844 8.667969 9.054688 7.9375 9.054688 C 7.207031 9.054688 6.613281 8.464844 6.613281 7.734375 C 6.613281 7 7.207031 6.410156 7.9375 6.410156 Z M 7.9375 6.410156 "/>
<path style=" stroke:none;fill-rule:nonzero;fill:rgb(0%,0%,0%);fill-opacity:0.235294;" d="M 7.9375 6.410156 C 7.207031 6.410156 6.613281 7 6.613281 7.734375 C 6.613281 7.753906 6.617188 7.773438 6.617188 7.792969 C 6.648438 7.089844 7.226562 6.535156 7.9375 6.535156 C 8.652344 6.535156 9.226562 7.089844 9.261719 7.792969 C 9.261719 7.773438 9.261719 7.753906 9.261719 7.734375 C 9.261719 7 8.671875 6.410156 7.9375 6.410156 Z M 7.9375 6.410156 "/>
<path style=" stroke:none;fill-rule:nonzero;fill:rgb(100%,100%,100%);fill-opacity:0.392157;" d="M 7.9375 9.222656 C 7.207031 9.222656 6.613281 8.628906 6.613281 7.898438 C 6.613281 7.878906 6.617188 7.855469 6.617188 7.835938 C 6.648438 8.539062 7.226562 9.097656 7.9375 9.097656 C 8.652344 9.097656 9.226562 8.539062 9.261719 7.835938 C 9.261719 7.855469 9.261719 7.878906 9.261719 7.898438 C 9.261719 8.628906 8.671875 9.222656 7.9375 9.222656 Z M 7.9375 9.222656 "/>
<path style="fill:none;stroke-width:3;stroke-linecap:round;stroke-linejoin:round;stroke:rgb(12.941177%,12.941177%,12.941177%);stroke-opacity:1;stroke-miterlimit:4;" d="M 253.975747 -9.894587 C 277.348515 -9.894587 296.3467 8.978611 296.3467 32.476367 C 296.3467 55.849135 277.348515 74.722333 253.975747 74.722333 C 230.602979 74.722333 211.604793 55.849135 211.604793 32.476367 C 211.604793 8.978611 230.602979 -9.894587 253.975747 -9.894587 Z M 253.975747 -9.894587 " transform="matrix(0.031253,0,0,0.031253,0,6.719392)"/>
</g>
</svg>
